Obsidian/actions/22s/tool-node-editor.svg

<svg height="22" viewBox="0 0 22 22" width="22" xmlns="http://www.w3.org/2000/svg"><path d="m11 0v1.5546875c-.363.0213-.723034.040525-1.1152344.078125-1.2789.1227-2.6618656.3289688-3.8847656.7304687v-.3632812h-4v4h.1269531c-.5694 1.3541-.9199093 2.931325-1.16210935 4.390625-.03542.213-.0555975.402375-.0859375.609375h-.87890625v4h1l.5.011719v-.011719h2.5v-4h-2.1113281c.0231-.154.0365-.291266.0625-.447266.2605-1.5693996.6979875-3.256634 1.3046875-4.552734h2.7441406v-2.5507812c1.1634-.4239 2.6275688-.6925657 3.9804688-.8222657.3575002-.0344.6855312-.0519656 1.0195312-.0722656v1.4453125h4v-4zm-4 6 4.800781 9 3.199219-3.375z" fill="#bebebe" transform="translate(3 3)"/></svg>

<svg xmlns="http://www.w3.org/2000/svg" width="22" height="22" viewBox="0 0 22 22">
 <defs>
  <style id="current-color-scheme" type="text/css">
   .ColorScheme-Text { color:#bebebe; } .ColorScheme-Highlight { color:#4285f4; }
  </style>
 </defs>
 <path style="fill:currentColor" class="ColorScheme-Text" d="M 11 0 L 11 1.5546875 C 10.637 1.5759875 10.276966 1.5952125 9.8847656 1.6328125 C 8.6058656 1.7555125 7.2229 1.9617813 6 2.3632812 L 6 2 L 2 2 L 2 6 L 2.1269531 6 C 1.5575531 7.3541 1.2070438 8.931325 0.96484375 10.390625 C 0.92942375 10.603625 0.90924625 10.793 0.87890625 11 L 0 11 L 0 15 L 1 15 L 1.5 15.011719 L 1.5 15 L 4 15 L 4 11 L 1.8886719 11 C 1.9117719 10.846 1.9251719 10.708734 1.9511719 10.552734 C 2.2116719 8.9833344 2.6491594 7.2961 3.2558594 6 L 6 6 L 6 3.4492188 C 7.1634 3.0253188 8.6275688 2.7566531 9.9804688 2.6269531 C 10.337969 2.5925531 10.666 2.5749875 11 2.5546875 L 11 4 L 15 4 L 15 0 L 11 0 z M 7 6 L 11.800781 15 L 15 11.625 L 7 6 z" transform="translate(3 3)"/>
</svg>
